X: 4054
T: Bleaton Gardens
R: reel
M: 4/4
K: Amixolydian
|:A2cA aAcA|B2d/c/B gBbB|A2cA aece|1 faed cA A/A/A:|2 faed cAAe||
K: A
|:f2cf af f/f/f|g2eg bgag|f2cf afcf|gbag af f/f/f|
f2cf afcf|g2eg bgag|a2fa gfed|1 cded ceae:|2 cAed cABc||

